X:840
T:Symon Brodie
R:Strathspey
B:The Athole Collection
M:C
L:1/8
K:E Minor
E>GB>E FD F/G/A/F/|G>EB>E e>EB>E|G>BA>d FD F/G/A/F/|
G>EB>E e>EG>B|E>GB>E FD F/G/A/F/|G>EB>E e>EB>E|
Dd e/d/c/B/ A<DF>A|EEF>E B>EG>B||E>GB>G F>DF>A|
G>EB>E d>Ee>B|d/e/f B>d F>DA>F|G>EB>E e>Be>f|E>GB>G F>DF>A|
G>EB>E d>Ee>B|d/e/f B>d F>DA>F|G>EB>E e>Be>f||
g>ag>e f>d f/g/a/f/|g>eb>e g>e b/a/g/f/|e>bg>b f>d f/g/a/f/|
g>eb>e a/g/f/e/ d>f|g>ag>e f>d f/g/a/f/|g>eb>e g>e b/a/g/f/|
A/B/^c d>B A>D B/A/G/F/|E>FB>E e>EG>B||
E>GB>G F>DF>A|G>EB>E d>Ee>B|d/e/f B>d F>DA>F|
G>EB>E e>Be>f|E>GB>G F>DF>A|G>EB>E d>Ee>B|
d/e/f B>d F>DA>F|G>EB>E e>Be>f||

